src/r/00a0-024f_1e00-1eff_latin/01ab_t-palatal.svg

<?xml version="1.0" encoding="UTF-8" standalone="no"?>
<!-- Created with Inkscape (http://www.inkscape.org/) -->

<svg
   xmlns:dc="http://purl.org/dc/elements/1.1/"
   xmlns:cc="http://creativecommons.org/ns#"
   xmlns:rdf="http://www.w3.org/1999/02/22-rdf-syntax-ns#"
   xmlns:svg="http://www.w3.org/2000/svg"
   xmlns="http://www.w3.org/2000/svg"
   version="1.1"
   width="1024"
   height="2048"
   id="svg3355">
  <defs
     id="defs3357" />
  <metadata
     id="metadata3360">
    <rdf:RDF>
      <cc:Work
         rdf:about="">
        <dc:format>image/svg+xml</dc:format>
        <dc:type
           rdf:resource="http://purl.org/dc/dcmitype/StillImage" />
        <dc:title></dc:title>
      </cc:Work>
    </rdf:RDF>
  </metadata>
  <path
     d="m 342,256 0,355 -278,0 0,157 278,0 0,454 c 0,236.0001 133.99717,314 352,314 0,191.999 -33.3196,256 -126,256 l -76,0 0,149 c 0,0 29.00483,16 76,16 221.99765,0 296,-83.9955 296,-421 l 0,-157 -160,0 c -119.00132,0 -192,-38.9974 -192,-157 l 0,-454 416,0 0,-157 -416,0 0,-355 z"
     id="path3157-2-7-83-5-6-6-5-5"
     style="fill:#000000;fill-opacity:1;stroke:none;display:inline" />
</svg>

<?xml version="1.0" encoding="UTF-8" standalone="no"?>
<svg
   xmlns:dc="http://purl.org/dc/elements/1.1/"
   xmlns:cc="http://creativecommons.org/ns#"
   xmlns:rdf="http://www.w3.org/1999/02/22-rdf-syntax-ns#"
   xmlns:svg="http://www.w3.org/2000/svg"
   xmlns="http://www.w3.org/2000/svg"
   version="1.1"
   width="1024"
   height="2048"
   id="svg3355">
  <defs
     id="defs3357" />
  <metadata
     id="metadata3360">
    <rdf:RDF>
      <cc:Work
         rdf:about="">
        <dc:format>image/svg+xml</dc:format>
        <dc:type
           rdf:resource="http://purl.org/dc/dcmitype/StillImage" />
        <dc:title></dc:title>
      </cc:Work>
    </rdf:RDF>
  </metadata>
  <path
     d="M 342,256 V 611 H 64 v 157 h 278 v 454 c 0,236.0001 133.99717,314 352,314 0,191.999 -33.3196,256 -126,256 h -76 v 149 c 0,0 29.00483,16 76,16 221.99765,0 296,-83.9955 296,-421 V 1379 H 704 c -119.00132,0 -192,-38.9974 -192,-157 V 768 H 928 V 611 H 512 V 256 Z"
     id="path3157-2-7-83-5-6-6-5-5"
     style="display:inline;fill:#000000;fill-opacity:1;stroke:none" />
</svg>
